frontend/public/images/quotes/obama.svg

<svg xmlns="http://www.w3.org/2000/svg" width="667" height="800" fill="none"><path fill="gray" fill-opacity=".08" d="M507.606 800H193.992c.279-1.447.67-2.882.811-4.342.196-2.046 1.149-4.117-.108-6.167-.204-.333-.137-.89-.067-1.319.442-2.586.841-5.182 1.403-7.739.866-3.947 1.877-7.864 2.78-11.803 1.003-4.375 2.181-8.733 2.843-13.162a52.246 52.246 0 0 1 2.735-10.58 4.44 4.44 0 0 0 .278-1.107c.425-4.599.837-9.203 1.245-13.807.112-1.26.191-2.52.295-3.947-1.14-.178-2.135-.361-3.142-.494-1.527-.2-3.088-.238-4.582-.566-4.262-.944-8.554-1.809-12.728-3.057-6.947-2.079-14.064-2.957-21.235-3.464-4.986-.354-9.998-.387-14.996-.562-2.314-.079-2.664-.332-2.972-2.586-.254-1.851-.878-3.361-2.489-4.533-1.623-1.182-2.722-2.895-3.459-4.787-1.756-4.504-2.959-9.17-3.679-13.936-.845-5.581-1.465-11.2-2.268-16.789-.953-6.638-2.456-13.134-5.548-19.147-1.22-2.371-1.299-4.796-.879-7.312.492-2.911.92-5.834 1.574-8.708 1.207-5.315 2.555-10.597 3.85-15.895 1.036-4.238 2.131-8.463 3.121-12.709 1.149-4.937 2.123-9.915 3.347-14.835.899-3.61 2.26-7.103 3.075-10.725 1.141-5.057 3.234-9.574 6.531-13.558.362-.437.674-.957.845-1.493 1.003-3.182 1.964-6.376 2.93-9.569 1.19-3.926 2.201-7.915 4.166-11.57.87-1.618 1.207-3.373.911-5.215-.224-1.394-.378-2.803-.678-4.18-.62-2.853-.166-5.481 1.465-7.906 1.149-1.705 2.214-3.468 3.459-5.099 1.402-1.838 3.109-3.256 5.698-2.753.162.034.354-.095.628-.179.441-2.021.754-3.959-.87-5.743-.832-.915-1.298-2.125-.903-3.402.396-1.272.758-2.62 1.469-3.718 1.116-1.717 1.57-3.506 1.316-5.477-.317-2.458.166-4.72 1.394-6.849 2.185-3.781 3.33-7.894 3.979-12.186.529-3.497 1.261-6.953 3.163-10.022 1.249-2.017 2.485-4.047 3.796-6.026 1.403-2.117 2.069-4.405 1.819-6.929-.429-4.317.366-8.409 2.122-12.352.417-.935.854-1.884 1.124-2.865 1.54-5.535 4.275-10.58 6.543-15.812.849-1.959 1.827-3.992 3.663-5.34.666-.49 1.54-.765 2.068-1.36 1.732-1.938 3.925-2.329 6.368-2.391 2.223-.054 4.241-.778 5.781-2.553.446-.516 1.099-.886 1.711-1.219 2.772-1.485 5.631-2.82 8.328-4.429 2.781-1.659 6.073-1.93 8.837-3.676 2.085-1.319 4.491-2.13 6.763-3.145 2.089-.935 4.15-1.975 6.301-2.748 5.178-1.859 10.406-3.573 15.6-5.382 1.869-.649 3.704-1.389 5.544-2.117 1.773-.699 3.563-1.368 5.294-2.162 2.552-1.173 5.107-2.367 7.575-3.706 2.356-1.281 4.591-2.782 6.909-4.138a85.395 85.395 0 0 1 4.383-2.362c2.223-1.131 4.524-2.113 6.684-3.348 2.556-1.46 4.878-3.377 7.53-4.608 1.956-.911 2.909-2.32 3.725-4.067.324-.699.686-1.377 1.044-2.059.591-1.127 1.137-2.312 2.756-2.237 0-1.173-.054-2.196.008-3.215.266-4.217.104-8.488 1.507-12.576.199-.582.32-1.277.199-1.863-.944-4.646-1.91-9.287-2.959-13.907-.782-3.431-1.352-6.921-2.755-10.194-.579-1.343-1.141-2.711-1.494-4.125-.983-3.918-1.728-7.902-2.797-11.794-.862-3.136-2.031-6.185-3.138-9.25-.171-.47-.77-1.135-1.12-1.102-.516.042-1.061.562-1.457.998-.857.94-1.556 2.034-2.46 2.92-.466.457-1.236.815-1.881.844-3.313.133-5.398-1.701-5.943-4.995-.146-.877-.354-1.771-.712-2.578-.708-1.576-1.586-3.078-2.31-4.65-1.523-3.298-2.019-6.882-2.88-10.367-.891-3.61-1.748-7.245-2.989-10.739-.649-1.829-.924-3.53-.77-5.423.2-2.42.179-4.857.333-7.282.063-1.014.183-2.071.529-3.015.608-1.651 1.785-2.986 3.608-3.057 1.778-.066 3.068-.698 3.984-2.066.57.208 1.023.37 1.552.561.608-1.688 1.399-3.202.412-4.887.445-2.025-.237-4.005-.22-6.005.012-1.464.503-2.932.457-4.387-.083-2.608 1.091-4.966 1.241-7.511.012-.25.158-.487.233-.732.549-1.805.628-3.643.391-5.502.333-.266.662-.524.966-.77-.25-.486-.433-.848-.812-1.584.733.52 1.095.773 1.827 1.289-.295-.773-.379-1.148-.566-1.455-.791-1.281-.707-2.404.5-3.386.424-.345.387-.769.387-1.331 0-1.073-.529-2.304.678-3.231 1.282-.981 1.823-2.262 1.253-3.955-.221-.661-.05-1.543 1.115-1.335-.803-1.634-.249-3.057.737-4.313.404-.515 1.161-.74 1.677-1.189.458-.399.799-.936 1.203-1.402.108-.124.254-.216.379-.32l-.558-1.318c1.74-2.042 3.459-4.059 5.186-6.08l1.965.116c-.092-1.543.72-2.329 1.918-2.807.408-.112.404.861 1.178.245 1.124-.894 2.327-1.755 3.884-2.058 1.119-.221 1.344-.978 1.207-2.175.466-.275 1.269-.121 1.315-1.019.012-.279.27-.599.503-.799 1.724-1.484 3.438-2.977 5.224-4.379.416-.324 1.09-.32 1.885-.528.416-.495.579-1.809 2.015-1.422.033-.121.025-.279.104-.362.682-.724 1.323-1.955 2.081-2.03 1.248-.129 2.264-.811 2.926-1.422 1.594-1.468 3.617-1.684 5.415-2.508.557-.258 1.211-.299 1.918-.466.529.2-.212 1.568 1.112 1.34l-.263-1.327 2.227-.903c.258.458.537.953.837 1.489 1.402-1.002 2.418-2.162 3.65-2.487 1.332-.353 2.872.067 4.383.154.437-.362.245-1.484 1.223-1.331 1.045.163 2.273-.336 2.847.591 1.012-.096 1.807-.196 2.602-.237.632-.033 1.265.012 1.902.021 1.556.025 3.109.054 4.665.066 2.76.025 5.365 1.406 8.191.915.362-.062.812-.008 1.132.162 1.607.849 3.484.953 5.049 1.926.375.233.949.116 1.403.254.716.216 1.444.44 2.102.781.882.458 1.673 1.102 2.568 1.535.557.27 1.007.462 1.082 1.173.037.337.312.649.587 1.173.328-.524.545-.874.786-1.256.25.262.496.515.766.802 1.182-.69 2.173-.711 3.009.52.337.499.945.811 1.428 1.206 1.09-.632 1.149-.611 2.788.923-.357.134-.67.25-.986.366.795 1.048 1.915 1.086 3.155.999l-.699 1.389c1.228.457 2.372.885 3.721 1.393.095.528.491 1.081 1.423 1.143.416.03.937.237 1.199.545 1.352 1.576 2.992 2.907 3.933 4.849.35.72.949 1.381 2.002 1.531 1.215.174 2.439.574 3.292 1.518-.22.374-.391.665-.633 1.073 1.145.387 2.211.732 1.869 2 .491.092.978.038 1.145.241.587.724 1.024 1.568 1.594 2.308.928 1.207 1.785 2.508 2.913 3.498.77.674 1.191 1.456 1.199 2.283.013 1.593.737 2.791 1.603 3.997.208.291.332.665.407 1.019a5.43 5.43 0 0 0 .775 1.859c.778 1.206 1.207 2.649 1.694 4.025.124.354-.105.82-.117 1.24-.037 1.189-.724 2.483.849 3.377.4.228.52 1.26.475 1.9-.117 1.626-.546 3.236-.562 4.858-.009.782-.404 1.035-.849 1.38l2.509 2.155c-.229.545-.482.998-.595 1.48a3.23 3.23 0 0 0-.021 1.281c.325 1.813.695 3.614 1.033 5.423.016.083-.134.2-.246.354-.104-.167-.196-.308-.287-.449-.034-.05-.063-.1-.096-.146l-.2.15c-.241 1.014 1.228 2.216-.216 3.181-.017.013.058.262.137.3.982.465.6 1.202.204 1.717-.72.948-.899 1.947-.716 2.708-.607.827-1.019 1.476-1.519 2.046-.72.819-.533 1.518.183 2.171.828.757 1.261 1.642 1.399 2.782.1.823.57 1.597.928 2.533.911-1.152-.512-2.417.666-3.402.245 1.197.416 2.233.682 3.248.263.994 1.137 1.426 2.044.935.533-.291.982-.811 1.348-1.31.779-1.064 1.199-1.256 2.377-.811 1.099.416 1.711 1.152 1.99 2.367.77 3.364.77 6.833 1.785 10.189.733 2.424.379 5.04-.504 7.552-1.19 3.386-2.168 6.85-3.204 10.289a23.63 23.63 0 0 0-.691 3.003c-.533 3.252-1.944 6.08-4.017 8.604-.736.894-1.615 1.809-1.394 3.057.312 1.747-.233 3.252-.882 4.803-.467 1.111-1.207 1.689-2.369 2.005-1.735.474-3.109-.362-4.391-.944-.836.395-1.519.715-2.36 1.115-.249 1.072-.486 2.262-.799 3.426-1.494 5.573-2.942 11.163-4.528 16.71-1.544 5.39-3.796 10.493-6.813 15.23-1.332 2.096-1.278 4.425.27 6.504 2.26-.025 2.993.167 3.459 1.664.716 2.296 2.106 4.213 3.142 6.325a16.22 16.22 0 0 0 2.452 3.631c1.319 1.476 2.872 2.745 4.274 4.155 2.577 2.591 5.111 5.223 7.667 7.839 1.007 1.031 2.16 1.805 3.604 2.1 1.449.295 2.885.641 4.333.928 4.636.923 9.086 2.42 13.131 4.853 3.455 2.079 7.159 3.439 10.988 4.579 1.719.511 3.451 1.052 5.066 1.813 7.271 3.419 14.609 6.646 22.333 8.937 1.449.429 2.864.666 4.342.574 3.849-.237 7.529.329 11.075 1.942 5.219 2.375 10.239 5.087 14.871 8.468 2.901 2.116 5.819 4.225 8.249 6.92.483.532 1.287.778 1.948 1.148 1.057.594 2.298.998 3.13 1.817 1.632 1.61 3.076 3.419 4.533 5.199 2.593 3.164 4.595 6.641 5.564 10.663.924 3.834 1.287 7.698 1.199 11.649-.066 3.06.258 6.13.408 9.191v.769c-.142 1.131-.354 2.258-.412 3.393-.175 3.423-1.074 6.53-3.351 9.229-1.344 1.593-2.821 3.244-2.534 5.635.037.299-.113.628-.212.936-.417 1.285-.209 2.545.187 3.78.528 1.643.97 3.335 1.71 4.883 1.253 2.632.741 5.518 1.391 8.23.145.611-.304 1.356-.442 2.046-.216 1.065-.408 2.138-.603 3.206-.208 1.123-.42 2.242-.608 3.369-.216 1.318-.474 2.637-.595 3.967a56.646 56.646 0 0 0-.216 4.766 7.947 7.947 0 0 0 .308 2.263 48.393 48.393 0 0 0 3.3 8.38c1.436 2.853 1.116 4.828-1.232 6.679-2.281 1.797-2.955 4.105-2.805 6.8.187 3.318.404 6.641.682 9.956.146 1.717.458 3.418.671 5.127.062.504.141 1.044.033 1.527-.729 3.269-.387 6.596-.429 9.881-.037 2.841.52 5.693.912 8.526.145 1.043.249 2.012-.296 2.973-.145.258-.15.624-.141.936.037 1.792.137 3.581.141 5.373.004 1.664.017 3.34-.15 4.991-.304 2.994-.749 5.976-1.115 8.962-.137 1.127.191 2.574-.391 3.335-1.324 1.726-1.607 3.756-2.256 5.664-1.436 4.255-2.822 8.538-2.485 13.138.017.254-.037.512-.067.765-.632 5.685-1.519 11.321-3.221 16.794-1.773 5.693-3.509 11.399-5.498 17.017-1.003 2.833-2.435 5.502-3.143 8.464-.278 1.168-.89 2.266-1.427 3.356-.966 1.954-2.065 3.847-2.968 5.83-.791 1.735-1.448 3.539-2.064 5.344-.745 2.18-1.216 4.463-2.106 6.571-1.99 4.725-3.992 9.462-7.779 13.159-.853.831-1.769 1.921-1.981 3.023-.433 2.263-1.844 3.893-2.935 5.748-.541.915-1.073 1.863-1.419 2.861-.658 1.892-.187 3.809.137 5.702.358 2.083 1.083 4.163 1.066 6.242-.042 5.51-.366 11.017-.641 16.523-.112 2.296-.495 4.583-.541 6.874-.033 1.589.295 3.186.466 4.779.604 5.618.999 11.245.737 16.901a7.596 7.596 0 0 0 .349 2.645c.733 2.242 1.112 4.612 2.344 6.683.516.87 1.061 1.73 1.461 2.654 2.518 5.801 3.671 12.014 5.323 18.07 1.095 4.009 1.648 8.163 2.443 12.256l.008.008Zm-218.81-564.466c.125.025.254.05.379.079l.087-1.085c-.116-.013-.229-.021-.345-.033-.042.345-.083.694-.121 1.039Z"/></svg>

<svg width="667" height="800" viewBox="0 0 667 800" fill="none" xmlns="http://www.w3.org/2000/svg">
<path d="M507.606 800H193.992C194.271 798.553 194.662 797.118 194.803 795.658C194.999 793.612 195.952 791.541 194.695 789.491C194.491 789.158 194.558 788.601 194.628 788.172C195.07 785.586 195.469 782.99 196.031 780.433C196.897 776.486 197.908 772.569 198.811 768.63C199.814 764.255 200.992 759.897 201.654 755.468C202.199 751.816 203.111 748.323 204.389 744.888C204.522 744.534 204.63 744.156 204.667 743.781C205.092 739.182 205.504 734.578 205.912 729.974C206.024 728.714 206.103 727.454 206.207 726.027C205.067 725.849 204.072 725.666 203.065 725.533C201.538 725.333 199.977 725.295 198.483 724.967C194.221 724.023 189.929 723.158 185.755 721.91C178.808 719.831 171.691 718.953 164.52 718.446C159.534 718.092 154.522 718.059 149.524 717.884C147.21 717.805 146.86 717.552 146.552 715.298C146.298 713.447 145.674 711.937 144.063 710.765C142.44 709.583 141.341 707.87 140.604 705.978C138.848 701.474 137.645 696.808 136.925 692.042C136.08 686.461 135.46 680.842 134.657 675.253C133.704 668.615 132.201 662.119 129.109 656.106C127.889 653.735 127.81 651.31 128.23 648.794C128.722 645.883 129.15 642.96 129.804 640.086C131.011 634.771 132.359 629.489 133.654 624.191C134.69 619.953 135.785 615.728 136.775 611.482C137.924 606.545 138.898 601.567 140.122 596.647C141.021 593.037 142.382 589.544 143.197 585.922C144.338 580.865 146.431 576.348 149.728 572.364C150.09 571.927 150.402 571.407 150.573 570.871C151.576 567.689 152.537 564.495 153.503 561.302C154.693 557.376 155.704 553.387 157.669 549.732C158.539 548.114 158.876 546.359 158.58 544.517C158.356 543.123 158.202 541.714 157.902 540.337C157.282 537.484 157.736 534.856 159.367 532.431C160.516 530.726 161.581 528.963 162.826 527.332C164.228 525.494 165.935 524.076 168.524 524.579C168.686 524.613 168.878 524.484 169.152 524.4C169.593 522.379 169.906 520.441 168.282 518.657C167.45 517.742 166.984 516.532 167.379 515.255C167.775 513.983 168.137 512.635 168.848 511.537C169.964 509.82 170.418 508.031 170.164 506.06C169.847 503.602 170.33 501.34 171.558 499.211C173.743 495.43 174.888 491.317 175.537 487.025C176.066 483.528 176.798 480.072 178.7 477.003C179.949 474.986 181.185 472.956 182.496 470.977C183.899 468.86 184.565 466.572 184.315 464.048C183.886 459.731 184.681 455.639 186.437 451.696C186.854 450.761 187.291 449.812 187.561 448.831C189.101 443.296 191.836 438.251 194.104 433.019C194.953 431.06 195.931 429.027 197.767 427.679C198.433 427.189 199.307 426.914 199.835 426.319C201.567 424.381 203.76 423.99 206.203 423.928C208.426 423.874 210.444 423.15 211.984 421.375C212.43 420.859 213.083 420.489 213.695 420.156C216.467 418.671 219.326 417.336 222.023 415.727C224.804 414.068 228.096 413.797 230.86 412.051C232.945 410.732 235.351 409.921 237.623 408.906C239.712 407.971 241.773 406.931 243.924 406.158C249.102 404.299 254.33 402.585 259.524 400.776C261.393 400.127 263.228 399.387 265.068 398.659C266.841 397.96 268.631 397.291 270.362 396.497C272.914 395.324 275.469 394.13 277.937 392.791C280.293 391.51 282.528 390.009 284.846 388.653C286.278 387.817 287.747 387.044 289.229 386.291C291.452 385.16 293.753 384.178 295.913 382.943C298.469 381.483 300.791 379.566 303.443 378.335C305.399 377.424 306.352 376.015 307.168 374.268C307.492 373.569 307.854 372.891 308.212 372.209C308.803 371.082 309.349 369.897 310.968 369.972C310.968 368.799 310.914 367.776 310.976 366.757C311.242 362.54 311.08 358.269 312.483 354.181C312.682 353.599 312.803 352.904 312.682 352.318C311.738 347.672 310.772 343.031 309.723 338.411C308.941 334.98 308.371 331.49 306.968 328.217C306.389 326.874 305.827 325.506 305.474 324.092C304.491 320.174 303.746 316.19 302.677 312.298C301.815 309.162 300.646 306.113 299.539 303.048C299.368 302.578 298.769 301.913 298.419 301.946C297.903 301.988 297.358 302.508 296.962 302.944C296.105 303.884 295.406 304.978 294.502 305.864C294.036 306.321 293.266 306.679 292.621 306.708C289.308 306.841 287.223 305.007 286.678 301.713C286.532 300.836 286.324 299.942 285.966 299.135C285.258 297.559 284.38 296.057 283.656 294.485C282.133 291.187 281.637 287.603 280.776 284.118C279.885 280.508 279.028 276.873 277.787 273.379C277.138 271.55 276.863 269.849 277.017 267.956C277.217 265.536 277.196 263.099 277.35 260.674C277.413 259.66 277.533 258.603 277.879 257.659C278.487 256.008 279.664 254.673 281.487 254.602C283.265 254.536 284.555 253.904 285.471 252.536C286.041 252.744 286.494 252.906 287.023 253.097C287.631 251.409 288.422 249.895 287.435 248.21C287.88 246.185 287.198 244.205 287.215 242.205C287.227 240.741 287.718 239.273 287.672 237.818C287.589 235.21 288.763 232.852 288.913 230.307C288.925 230.057 289.071 229.82 289.146 229.575C289.695 227.77 289.774 225.932 289.537 224.073C289.87 223.807 290.199 223.549 290.503 223.303C290.253 222.817 290.07 222.455 289.691 221.719C290.424 222.239 290.786 222.492 291.518 223.008C291.223 222.235 291.139 221.86 290.952 221.553C290.161 220.272 290.245 219.149 291.452 218.167C291.876 217.822 291.839 217.398 291.839 216.836C291.839 215.763 291.31 214.532 292.517 213.605C293.799 212.624 294.34 211.343 293.77 209.65C293.549 208.989 293.72 208.107 294.885 208.315C294.082 206.681 294.636 205.258 295.622 204.002C296.026 203.487 296.783 203.262 297.299 202.813C297.757 202.414 298.098 201.877 298.502 201.411C298.61 201.287 298.756 201.195 298.881 201.091C298.685 200.63 298.515 200.226 298.323 199.773C300.063 197.731 301.782 195.714 303.509 193.693C304.079 193.726 304.7 193.763 305.474 193.809C305.382 192.266 306.194 191.48 307.392 191.002C307.8 190.89 307.796 191.863 308.57 191.247C309.694 190.353 310.897 189.492 312.454 189.189C313.573 188.968 313.798 188.211 313.661 187.014C314.127 186.739 314.93 186.893 314.976 185.995C314.988 185.716 315.246 185.396 315.479 185.196C317.203 183.712 318.917 182.219 320.703 180.817C321.119 180.493 321.793 180.497 322.588 180.289C323.004 179.794 323.167 178.48 324.603 178.867C324.636 178.746 324.628 178.588 324.707 178.505C325.389 177.781 326.03 176.55 326.788 176.475C328.036 176.346 329.052 175.664 329.714 175.053C331.308 173.585 333.331 173.369 335.129 172.545C335.686 172.287 336.34 172.246 337.047 172.079C337.576 172.279 336.835 173.647 338.159 173.419C338.067 172.957 337.98 172.512 337.896 172.092C338.654 171.784 339.282 171.53 340.123 171.189C340.381 171.647 340.66 172.142 340.96 172.678C342.362 171.676 343.378 170.516 344.61 170.191C345.942 169.838 347.482 170.258 348.993 170.345C349.43 169.983 349.238 168.861 350.216 169.014C351.261 169.177 352.489 168.678 353.063 169.605C354.075 169.509 354.87 169.409 355.665 169.368C356.297 169.335 356.93 169.38 357.567 169.389C359.123 169.414 360.676 169.443 362.232 169.455C364.992 169.48 367.597 170.861 370.423 170.37C370.785 170.308 371.235 170.362 371.555 170.532C373.162 171.381 375.039 171.485 376.604 172.458C376.979 172.691 377.553 172.574 378.007 172.712C378.723 172.928 379.451 173.152 380.109 173.493C380.991 173.951 381.782 174.595 382.677 175.028C383.234 175.298 383.684 175.49 383.759 176.201C383.796 176.538 384.071 176.85 384.346 177.374C384.674 176.85 384.891 176.5 385.132 176.118C385.382 176.38 385.628 176.633 385.898 176.92C387.08 176.23 388.071 176.209 388.907 177.44C389.244 177.939 389.852 178.251 390.335 178.646C391.425 178.014 391.484 178.035 393.123 179.569C392.766 179.703 392.453 179.819 392.137 179.935C392.932 180.983 394.052 181.021 395.292 180.934C395.042 181.433 394.88 181.753 394.593 182.323C395.821 182.78 396.965 183.208 398.314 183.716C398.409 184.244 398.805 184.797 399.737 184.859C400.153 184.889 400.674 185.096 400.936 185.404C402.288 186.98 403.928 188.311 404.869 190.253C405.219 190.973 405.818 191.634 406.871 191.784C408.086 191.958 409.31 192.358 410.163 193.302C409.943 193.676 409.772 193.967 409.53 194.375C410.675 194.762 411.741 195.107 411.399 196.375C411.89 196.467 412.377 196.413 412.544 196.616C413.131 197.34 413.568 198.184 414.138 198.924C415.066 200.131 415.923 201.432 417.051 202.422C417.821 203.096 418.242 203.878 418.25 204.705C418.263 206.298 418.987 207.496 419.853 208.702C420.061 208.993 420.185 209.367 420.26 209.721C420.41 210.394 420.635 210.96 421.035 211.58C421.813 212.786 422.242 214.229 422.729 215.605C422.853 215.959 422.624 216.425 422.612 216.845C422.575 218.034 421.888 219.328 423.461 220.222C423.861 220.45 423.981 221.482 423.936 222.122C423.819 223.748 423.39 225.358 423.374 226.98C423.365 227.762 422.97 228.015 422.525 228.36C423.382 229.097 424.185 229.787 425.034 230.515C424.805 231.06 424.552 231.513 424.439 231.995C424.343 232.403 424.343 232.86 424.418 233.276C424.743 235.089 425.113 236.89 425.451 238.699C425.467 238.782 425.317 238.899 425.205 239.053C425.101 238.886 425.009 238.745 424.918 238.604C424.884 238.554 424.855 238.504 424.822 238.458C424.772 238.495 424.722 238.533 424.622 238.608C424.381 239.622 425.85 240.824 424.406 241.789C424.389 241.802 424.464 242.051 424.543 242.089C425.525 242.554 425.143 243.291 424.747 243.806C424.027 244.754 423.848 245.753 424.031 246.514C423.424 247.341 423.012 247.99 422.512 248.56C421.792 249.379 421.979 250.078 422.695 250.731C423.523 251.488 423.956 252.373 424.094 253.513C424.194 254.336 424.664 255.11 425.022 256.046C425.933 254.894 424.51 253.629 425.688 252.644C425.933 253.841 426.104 254.877 426.37 255.892C426.633 256.886 427.507 257.318 428.414 256.827C428.947 256.536 429.396 256.016 429.762 255.517C430.541 254.453 430.961 254.261 432.139 254.706C433.238 255.122 433.85 255.858 434.129 257.073C434.899 260.437 434.899 263.906 435.914 267.262C436.647 269.686 436.293 272.302 435.41 274.814C434.22 278.2 433.242 281.664 432.206 285.103C431.91 286.085 431.681 287.091 431.515 288.106C430.982 291.358 429.571 294.186 427.498 296.71C426.762 297.604 425.883 298.519 426.104 299.767C426.416 301.514 425.871 303.019 425.222 304.57C424.755 305.681 424.015 306.259 422.853 306.575C421.118 307.049 419.744 306.213 418.462 305.631C417.626 306.026 416.943 306.346 416.102 306.746C415.853 307.818 415.616 309.008 415.303 310.172C413.809 315.745 412.361 321.335 410.775 326.882C409.231 332.272 406.979 337.375 403.962 342.112C402.63 344.208 402.684 346.537 404.232 348.616C406.492 348.591 407.225 348.783 407.691 350.28C408.407 352.576 409.797 354.493 410.833 356.605C411.47 357.907 412.319 359.155 413.285 360.236C414.604 361.712 416.157 362.981 417.559 364.391C420.136 366.982 422.67 369.614 425.226 372.23C426.233 373.261 427.386 374.035 428.83 374.33C430.279 374.625 431.715 374.971 433.163 375.258C437.799 376.181 442.249 377.678 446.294 380.111C449.749 382.19 453.453 383.55 457.282 384.69C459.001 385.201 460.733 385.742 462.348 386.503C469.619 389.922 476.957 393.149 484.681 395.44C486.13 395.869 487.545 396.106 489.023 396.014C492.872 395.777 496.552 396.343 500.098 397.956C505.317 400.331 510.337 403.043 514.969 406.424C517.87 408.54 520.788 410.649 523.218 413.344C523.701 413.876 524.505 414.122 525.166 414.492C526.223 415.086 527.464 415.49 528.296 416.309C529.928 417.919 531.372 419.728 532.829 421.508C535.422 424.672 537.424 428.149 538.393 432.171C539.317 436.005 539.68 439.869 539.592 443.82C539.526 446.88 539.85 449.95 540 453.011V453.78C539.858 454.911 539.646 456.038 539.588 457.173C539.413 460.596 538.514 463.703 536.237 466.402C534.893 467.995 533.416 469.646 533.703 472.037C533.74 472.336 533.59 472.665 533.491 472.973C533.074 474.258 533.282 475.518 533.678 476.753C534.206 478.396 534.648 480.088 535.388 481.636C536.641 484.268 536.129 487.154 536.779 489.866C536.924 490.477 536.475 491.222 536.337 491.912C536.121 492.977 535.929 494.05 535.734 495.118C535.526 496.241 535.314 497.36 535.126 498.487C534.91 499.805 534.652 501.124 534.531 502.454C534.385 504.039 534.327 505.632 534.315 507.22C534.31 507.973 534.41 508.759 534.623 509.483C535.459 512.377 536.562 515.164 537.923 517.863C539.359 520.716 539.039 522.691 536.691 524.542C534.41 526.339 533.736 528.647 533.886 531.342C534.073 534.66 534.29 537.983 534.568 541.298C534.714 543.015 535.026 544.716 535.239 546.425C535.301 546.929 535.38 547.469 535.272 547.952C534.543 551.221 534.885 554.548 534.843 557.833C534.806 560.674 535.363 563.526 535.755 566.359C535.9 567.402 536.004 568.371 535.459 569.332C535.314 569.59 535.309 569.956 535.318 570.268C535.355 572.06 535.455 573.849 535.459 575.641C535.463 577.305 535.476 578.981 535.309 580.632C535.005 583.626 534.56 586.608 534.194 589.594C534.057 590.721 534.385 592.168 533.803 592.929C532.479 594.655 532.196 596.685 531.547 598.593C530.111 602.848 528.725 607.131 529.062 611.731C529.079 611.985 529.025 612.243 528.995 612.496C528.363 618.181 527.476 623.817 525.774 629.29C524.001 634.983 522.265 640.689 520.276 646.307C519.273 649.14 517.841 651.809 517.133 654.771C516.855 655.939 516.243 657.037 515.706 658.127C514.74 660.081 513.641 661.974 512.738 663.957C511.947 665.692 511.29 667.496 510.674 669.301C509.929 671.481 509.458 673.764 508.568 675.872C506.578 680.597 504.576 685.334 500.789 689.031C499.936 689.862 499.02 690.952 498.808 692.054C498.375 694.317 496.964 695.947 495.873 697.802C495.332 698.717 494.8 699.665 494.454 700.663C493.796 702.555 494.267 704.472 494.591 706.365C494.949 708.448 495.674 710.528 495.657 712.607C495.615 718.117 495.291 723.624 495.016 729.13C494.904 731.426 494.521 733.713 494.475 736.004C494.442 737.593 494.77 739.19 494.941 740.783C495.545 746.401 495.94 752.028 495.678 757.684C495.636 758.562 495.757 759.493 496.027 760.329C496.76 762.571 497.139 764.941 498.371 767.012C498.887 767.882 499.432 768.742 499.832 769.666C502.35 775.467 503.503 781.68 505.155 787.736C506.25 791.745 506.803 795.899 507.598 799.992L507.606 800ZM288.796 235.534C288.921 235.559 289.05 235.584 289.175 235.613C289.204 235.252 289.233 234.89 289.262 234.528C289.146 234.515 289.033 234.507 288.917 234.495C288.875 234.84 288.834 235.189 288.796 235.534Z" fill="#808080" fill-opacity="0.08"/>
</svg>
